X:1 
T:Cordero III
C:
M:4/4
L:1/8
Q:1/4=80
K:Em
%
    "Em"E8 | GE-E6 | E8 | GE-E4zE | "D"DD-D4 BD |
w: Cor-de-ro,_ cor-de-ro_ que qui-tas_ el pe-
    "Em"EE-E4zE | "D"DD-D4 B,D | "Em"E8 |
w: ca-do,_ del mun-do_ ten pie-dad
